core/img/actions/password-white.svg

<svg width="16" height="16" version="1.1" viewBox="0 0 16 16" xmlns="http://www.w3.org/2000/svg"><path d="m8 1c-2.319 0-3.967 1.8644-4 4v2.5h-1.5v7.5h11v-7.5h-1.5v-2.5c0-2.27-1.8-3.9735-4-4zm0 2c1.25 0 2 0.963 2 2v2.5h-4v-2.5c0-1.174 0.747-2 2-2z" fill="#fff"/></svg>

<svg xmlns="http://www.w3.org/2000/svg" width="16" height="16"><path fill="#fff" d="M8 1C5.681 1 4.033 2.864 4 5v2.5H2.5V15h11V7.5H12V5c0-2.27-1.8-3.974-4-4zm0 2c1.25 0 2 .963 2 2v2.5H6V5c0-1.174.747-2 2-2z"/></svg>
